X: 2909
T: Barr Road, The
R: reel
M: 4/4
K: Gmajor
B2AG DGG2|DFAc BGG2|eccA dBBG|A2ag fdcA|
B2AG DGG2|DFAc BGG2|e2cA Ggfe|dedc BGG2:|
Bd3 dedc|Bddc BGG2|Bd2d dedB|cBAG FDD2|
Bddd dedc|Bddc BGGA|ec2cd BB2|FAdc BGG2:|

